X:1
T:New Radnor, 88.88.88
T:New Radnor, 88.88.88
T:Timothy Richard Matthews, 1889
T:Public Domain Courtesy of the Cyber Hymnal™
C:Timothy Richard Matthews, 1889
Z:Public Domain
Z:Courtesy of the Cyber Hymnal™
%%score ( 1 2 ) ( 3 4 )
L:1/8
Q:1/4=115
M:3/4
K:C
V:1 treble 
V:2 treble 
V:3 bass 
V:4 bass 
V:1
 [EG]2 | (G2 c2) [EB]2 | [CA]4 [CG]2 | F4 [DG]2 | [CE]4 [CE]2 | (E2 F2) [CE]2 | [CA]4 [CD]2 | %7
 (D2 E2) [B,F]2 | [CE]4 [EG]2 | [EG]2 [Ge]2 [Fd]2 | [Ec]4 [EB]2 | [CA]2 [FB]2 [Ec]2 | [DB]4 [EB]2 | %13
 (c2 B2) [EA]2 | (G2 ^F2) [DG]2 | [EA]2 [DB]2 [CA]2 x2 | [B,G]4 [DG]2 | (G2 c2) [EB]2 | %18
 [CA]4 [EA]2 | (A2 d2) [Ec]2 | [Ec]2 [DB]2 [GB]2 | (c2 B2) [FA]2 | G4 [B,F]2 | (E2 F2) [B,D]2 | %24
 C4 |] %25
V:2
 x2 | E4 x2 | x6 | (C2 B,2) x2 | x6 | C4 x2 | x6 | C4 x2 | x6 | x6 | x6 | x6 | x6 | E4 x2 | D4 x2 | %15
 x8 | x6 | E4 x2 | x6 | F4 x2 | x6 | G4 x2 | (D2 G,2) x2 | C4 x2 | C4 |] %25
V:3
 [C,C]2 | [C,C]4 [E,G,]2 | F,4 [E,G,]2 | (A,2 G,2) [B,,G,]2 | [C,G,]4 [C,G,]2 | [A,,A,]4 [C,G,]2 | %6
 [F,,F,]4 [F,A,]2 | G,4 [G,,G,]2 | [C,G,]4 [C,C]2 | [C,C]4 [G,B,]2 | [A,C]4 [E,G,]2 | F,4 [C,G,]2 | %12
 G,4 [E,^G,]2 | ([A,,A,]2 [B,,D]2) [C,C]2 | (B,2 A,2) [B,,G,]2 | G,4 z2 ^F,2 | [G,,G,]4 [G,B,]2 | %17
 [C,C]4 [E,G,]2 | [F,A,]4 [^C,A,]2 | [D,A,]4 G,2 | G,4 [F,D]2 | [E,C]4 [F,C]2 | [B,,G,]4 [G,,G,]2 | %23
 ([C,G,]2 [F,,A,]2) [G,,F,]2 | [C,E,]4 |] %25
V:4
 x2 | x6 | F,4 x2 | D,4 x2 | x6 | x6 | x6 | G,4 x2 | x6 | x6 | x6 | F,2 D,2 x2 | ^G,4 x2 | x6 | %14
 D,4 x2 | C,2 D,4 x2 | x6 | x6 | x6 | x4 (E,F,) | G,4 x2 | x6 | x6 | x6 | x4 |] %25

